X:1
T:- # -
%%score [ 1 2 3 4 ]
L:1/8
M:4/4
K:C
V:1 treble nm="Sopran" snm=" "
V:2 treble-8 nm="Alt"
V:3 treble-8 nm="Tenor"
V:4 bass nm="Baß"
V:1
"^Christobal de Morales" z8 | z4 A4- | A4 G4 | F4 E4- |"^VII.  Miserere nostri""^5" E4 B3 A | %5
w: |Mi-|* se-|re- re|* no *|
w: |||||
 c6 BA | B4"^1546" A4- | A2 GF G4 | A2 c4 BA |"^10" G2 A3 G G2 | F2 E3 D D2 | E8- | E4 z4 | z4 G4 | %14
w: |||stri, de- * *|us om- * *|* * * ni-|~um,||et|
w: |||||||||
"^15" B4 c4 | B2 c4 BA | c2 B4 AG | A2 c2 B2 A2- | A2 GF G4 |"^20" z2 G2 AGAB | c6 BA | %21
w: os- ten-|de no- * *||bis lu- * *|* * * cem|mi- se- * ra- *|ti- * *|
w: |||||||
 G2 A3 G G2 | A8 | z8 |"^25" A4 c4 | B2 G2 A3 B | c2 B3 AGF | E4 z2 c2- | c2 B2 A2 G2 | %29
w: num tu- * a-|rum.||E- mit-|\-te ti- mo- rem|tu- * * * *|um su-|* per gen- tes,|
w: ||||||||
"^30" F2 E2 D2 F2- | FE E3 D D2 | EFGA BA c2- | c2 BA G4- | G8 |"^35" z8 | z2 d4 c2 | B2 A2 B2 c2 | %37
w: quae non ex- qui-|* * si- * e~-||* ~~runt * te,|||su- per|gen- tes, quae non|
w: ||||||||
 d4 c3 B | A2 G3 E A2- |"^40" AG G2 A3 G | F2 D2 E4 | z4 z2 B2- | B2 c2 B4 | G2 B3 A A2- | %44
w: ex- qui *||* * si- e- *|* runt ~te.|Al-|* le- va|ma- num * tu-|
w: |||||||
"^45" AG G2 A3 F | G2 E3 D D2 | E4 z2 G2 | E2 A3 G G2 | A8 |"^50" z2 A2 G3 A | B2 c4 B2- | %51
w: ||\-am su-|per gen- * *|tes|et ad- *|* ve- *|
w: |||||||
 BA A2 B2 c2- | c2 BA G4- | G8 |"^55" z8 | z2 B2 B2 B2 | c3 B A2 c2 | B2 A2 G c2 B | c4 z4 | %59
w: |* * * ~nas,|||ut vi- de-|\-ant * * po-|ten- ti- am tu- *|am|
w: ||||||||
"^60" z2 G2 A4 | G2 F2 E3 F | G2 A4 G2 | A4 z4 | z2 A4 G2 |"^65" E2 F2 G4 | F2 D2 E2 F2- | %66
w: et cog-|nos- cant te, *||||||
w: ||||sic- ut|et nos cog-|no * * *|
 FE E3 D D2 | E8 | z2 E4 C2 |"^70" E3 F G2 A2- | AG c3 B B2 | c8 | z4 A4 | F2 G2 A3 B | %74
w: * * * * vi-|mus,|quo- ni-|am * non est|* * de- * *|\-us|prae-|ter te do- *|
w: ||||||||
"^75" c2 d3 c c2- | cB B2 c4- | c4 B4- | B4 A4 | z2 G2 A4 |"^80" B4 c3 B | AG c2 B2 A2- | %81
w: ||* mi-|* ~ne,|prae- ter|te do- *||
w: |||||||
 AG G2 C3 D | E4 E4- | E8- | E8 |[M:4/4]"^Secunda pars" E4 A2 B2 | c4 B4 | z2 A2 B2 c2 | d2 A2 c4 | %89
w: |mi- ~ne.|||In- no- va|sig- na|et im- mu-|ta mi- ra-|
w: ||||||||
"^90" B2 d3 cAB | c2 B2 EFGE | F4 E2 A2- | AG G2 A3 B | G4 z4 |"^95" z8 | z8 | z4 A4 | %97
w: bi * * * *|||* * * * li-|~a,|||glo-|
w: ||||||||
 G2 E2 F2 F2 | E3 F GA B2- |"^100" BA A3 G G2 | A4 z2 A2- | A2 G2 F2 E2 | F4 E3 F | G2 A4 ^G2 | %104
w: ri- fi- ca ma-|\-num * * * *|* * tu- * *|am et|* bra- chi- um|dex- * *||
w: |||||||
"^105" A4 z4 | z8 | z8 | z2 A4 G2 | A2 B2 c4 |"^110" B4 z2 E2 | F2 G2 A2 A2 | E4 z2 E2- | %112
w: trum,|||ex- ci-|ta fu- ro-|\-rem et|ef- fun- de i-|ram, de-|
w: ||||||||
 EE E2 F2 E2 | D2 E3 DCB, |"^115" A,2 F3 E E2- | ED D2 E3 D/C/ | D2 G3 F F2 | G4 z4 | z2 G2 c2 BA | %119
w: * pri- me ad- ver-|sa- ri- * * *|* no- * *|||~strum,|fe- sti- * *|
w: ||\-um * * *|||||
"^120" B2 A3 G G2 | A2 F2 E4- | E4 z4 | z2 G4 F2 | E2 D2 F2 E2- |"^125" ED D2 E4- | E4 z2 E2- | %126
w: \-na tem- * *|* * pus||et me-|men- to fi *|* * * ~~nis,|* con-|
w: |||||||
 EE E2 E2 F2 | G3 G G2 E2 | F2 G4 A2- |"^130" AGFE D2 G2- | GFED E2 F2- | FE E3 D D2 | E4 z4 | z8 | %134
w: * te- re ca- put|prin- ci- pum, in-|i- quo *|* * * * rum di-||* * cen- * ti-|um,||
w: ||||||||
"^135" z4 z2 A2- | A2 B2 c3 c | c2 d4 c2 | B2 A3 G G2 | A3 G FE D2 |"^140" E2 F3 E E2- | %140
w: non|* est a- li-|us de- us|prae- * * *|||
w: ||||||
 E2 D2 E4- | E4 z4 | E8 | E4 F4- |"^145" F4 G4- | G4 z4 | G6 G2 | G4 A4- | A4 G4- | %149
w: * ter te,||ut|cog- nos-|* cant,||qui- a|non est|* a-|
w: |||||||||
"^150" G2 G2 A4 | B4 c4- | c4 z4 | c6 B2 | A6 G2 |"^155" F6 E2 | E6 DC | D4 E4- | E8 |] %158
w: * li- us|de- us,||ni- si|tu *|de- us|no- * *|* ~~ster.||
w: |||||||||
V:2
 z8 | z8 | e8 | d4 c4 | B8 | e3 d e2 f2 | g3 f defd | e4 d4- | d2 e2 A4 | e8 | z4 A4 | B4 c4 | %12
w: ||Mi-|se- re-|re|no- * * stri,|de * * * * *|\-us om-|* * ni-|~um,|et|os- ten-|
w: ||||||||||||
 B2 e3 d d2 | e8 | z4 e4 | g4 a4 | g6 g2 | c4 f4 | e4 z2 e2- | e2 e2 f4 | g6 f2 | e2 d2 e4 | e8 | %23
w: de no- * *|\-bis,|et|os- ten-|de no-|bis lu-|cem mi-|* se- ra-|ti- o-|num tu- a-|~rum.|
w: |||||||||||
 z4 e4 | f4 e2 c2 | d2 e2 f4 | e8 | z2 g4 f2 | e2 d2 c2 B2 | A2 c2 B2 A2- | AG G2 c2 d2 | %31
w: E-|mit- te ti-|\-mo- rem tu-|um|su- per|gen- tes, quae non|ex- qui- * *|* * si~- e- *|
w: ||||||||
 G3 E FE e2- | ed d2 e4 | z2 c4 B2 | A4 G2 F2 | E2 D2 AB c2 | d3 c BA A2- | AG G2 A4 | z2 e4 f2 | %39
w: |* * runt te,|quae non|ex- qui- *||\-si- * * * e-|* * runt ~te.|Al- le-|
w: ||||||||
 e4 c2 e2- | ed d3 c c2 | d2 c3 BGA | Bc A2 G2 g2- | gf e3 c d2 | z2 e4 f2 | e4 c2 d2- | %46
w: va ma- num|* * tu- * *|||* * * * am,|al- le-|va ma- num|
w: |||||||
 (dc) c3 B B2 | c4 z2 d2 | c2 f3 e e2- | ed d2 e4 | e3 d ef g2- | g2 fe d2 e2- | e2 d2 e4 | E4 z4 | %54
w: * * tu- * *|am su-|per gen * *|* * * tes|et * * * *||||
w: |||||* * * * ad-|* * ve-|~nas,|
 z8 | z4 z2 e2 | e2 e2 f3 e | d2 f2 e2 d2 | cd e2 z2 d2 | e4 d2 c2 | BA d3 (c c2) | (B2 d2) e4 | %62
w: ||vi- de- ant po-|ten- ti- am tu-|* * am et|cog- nos- cant|te, * * * *|* et cog-|
w: |ut|||||||
 d2 c2 B4 | z4 z2 e2- | e2 d2 B2 c2 | d4 c2 A2- | AB c4 BA | G3 A B2 c2 | B4 z2 e2- | %69
w: nos- cant te,|sic-|* ut et nos|cog- no *||* * * vi-|~mus, quo-|
w: |||||||
 e2 c2 e2 f2- | f2 e2 d4 | c4 z2 A2- | A2 F3 G A2 | D4 z2 e2- | e2 d2 e2 f2 | e2 d2 e3 d | %76
w: * ni- am ~non|* est de-|\-us, ~non|* est * de-|~us, quo-|* ni- am non|est de- * *|
w: |||||||
 ef g3 f d2- | de f3 ecd | e4 z2 c2 | d4 e4 | f2 e3 d d2 | c2 B3 A A2- | A2 G2 G3 F | G2 A4 ^G^F | %84
w: ||us prae-|* ter|te do- * *||||
w: ||||||||
 ^G3 A G4 |[M:4/4] z8 | A4 d2 e2 | f4 e4 | z2 d2 e2 f2 | g2 d2 f4 | e2 g3 f e2- | ed d2 e4 | %92
w: * mi- ~ne.||In- no- va|sig- na|et im- mu-|ta mi- ra-|\-bi- * * *|* * * li-|
w: ||||||||
 d2 G2 c3 d | efge f4 | e4 d4 | z8 | z8 | e4 d2 A2 | c2 c2 B2 A2- | ABcd e4 | z2 e4 d2 | %101
w: a, mi- ra- *|* * * * bi-|\-li- a,|||glo- ri- fi-|\-ca ma- num tu|* * * * am|et bra-|
w: |||||||||
 c2 B2 d2 e2- | ed d2 e4- | e4 z2 e2- | e2 c2 d2 e2 | f4 e4 | z2 E2 F2 G2 | A2 A2 E4 | z4 z2 A2- | %109
w: chi- um dex- *|* * * ~trum,|* ex-|* ci- ta fu-|ro- rem|et ef- fun-|de i- ram,|et|
w: ||||||||
 A2 G2 A3 B | cd e2 c2 d2 | A2 c2 B4 | z2 c3 c c2 | d2 c2 B2 c2- | cBAG AB c2- | cB B2 c3 B/A/ | %116
w: * ef- fun- *|* * * de i-|* * ram,|de- pri- me|ad- ver- sa- ri-||* * um no- * *|
w: |||||||
 G4 z4 | z2 c2 d2 f2 | e3 d cd e2 | dcBA B4 | z2 A4 G2 | F2 E2 F4 | E3 F G2 A2- | AG G2 z2 A2 | %124
w: strum,|fe- sti- na|tem- * * * *|* * * * pus|et me-|men- to fi-||* * ~nis, et|
w: ||||||||
 G2 F2 G2 A2- | AG G2 A4 | c3 c c2 c2 | d2 e3 e e2 | c2 d2 e4 | f2 d3 cBA | B2 c3 BAG | AB c4 BA | %132
w: me- men- to fi-|* * * nis,|con- te- re ca-|put prin- ci- pum,|in- i- quo-|rum di- * * *|* cen * * *|* * * ti- *|
w: ||||||||
 G2 A4 B2 | c3 c c2 d2- | d2 c2 B2 A2- | AG G2 ABcd | e2 f4 e2 | d2 c2 B4 | A3 B c2 B2- | %139
w: um, non est|a- li- us de-|* us prae *|* * ter te, * * *|* non est|a- li- us|de- * * *|
w: |||||||
 BA A4 G2 | A3 B c4 | B4 c4- | c4 z4 | c4 d4 | d4 e4- | e4 z4 | e6 e2 | e4 d2 c2- | c2 d2 e3 d | %149
w: * * us prae-||ter te,||ut cog-|nos- cant,||qui- a|non est a-|* * li- us|
w: ||||||||||
 c2 B3 A A2- | A2 G2 A4- | A4 z4 | a6 g2 | f6 e2 | d4 c2 BA | B2 c3 BAG | FG A4 ^G^F | ^G3 A G4 |] %158
w: de- * * *|* * ~us,||ni- si|tu *|de- * * *|us no * * *||* * ster.|
w: |||||||||
V:3
 z8 | d8 | c4 B4 | A8 | B3 A d4- | d2 cB c4 | d8 | c4 B4 | A3 G c4- | c2 BA B2 c2 | A2 G2 F4 | E8 | %12
w: |Mi-|se- re-|re|no * *||stri,|de- us|om- * *||* * ni-|~um,|
 z4 A4 | B4 c4 | B2 e4 c2 | d2 e3 d d2 | e8 | z2 A2 d4 | B2 c4 BA | B4 d4 | e6 dc | B2 A2 B4 | %22
w: et|os- ten-|de no- bis|lu * * *|cem|mi- se-|ra- ti- o- *|\-num tu-|a * *||
 A3 B cd e2- | ed d4 ^c2 | d3 c A4 | z8 | z8 | z8 | z8 | z8 | z4 A4 | c4 B2 G2 | A3 B c2 B2- | %33
w: ||* * ~rum.||||||E-|\-mit- te ti-|mo- rem tu- *|
 BAGF E4 | z2 c4 B2 | A2 G2 F2 E2 | D2 F3 E E2- | ED D2 E2 e2- | ed B2 c2 d2 | B4 z2 A2- | %40
w: * * * * ~um|su- per|gen- tes, quae non|ex- qui- si- e-|* * * runt te.||* Al-|
 A2 _B2 A4 | F2 A3 G G2- | GF F2 G2 B2 | c2 B2 G2 A2 | B4 A4 | z4 z2 G2 | E2 A3 G G2 | A2 c2 B4 | %48
w: * le- va|ma- * num tu-|* * * ~am, al-|le- va ma- num|tu- am|su-|\-per gen- * *||
 A4 z2 c2 | A2 d3 c c2 | B2 A2 B4 | c4 B2 G2 | A4 z2 B2 | B2 B2 c2 B2 | A2 c2 B2 A2 | G8- | G4 z4 | %57
w: ~tes, su-|per gen- * *|* * tes|et ad- ve-|~nas, ut|vi- de- ant po-|ten- ti- am tu-|am||
 z8 | z2 c2 d4 | c2 B2 A4 | z4 z2 c2 | d4 c2 B2 | A4 z2 d2- | d2 c2 A2 c2- | c2 BA G4 | z2 G4 F2 | %66
w: |et cog-|nos- cant te,|et|cog- nos- cant|te, sic-|* ut et ~nos,||sic- ut|
 D2 E2 F2 G2- | GA/B/ c2 B2 A2- | AF G2 A4- | A4 z4 | z8 | z2 e4 c2 | e2 f4 e2 | d4 c3 B | %74
w: et nos cog- no-||* * vi- mus,|||quo- ni-|am non est|de- * *|
 A2 B2 c2 F2 | G4 z4 | z2 E2 G3 A | Bc d3 cAB | c2 B3 A A2- | AGGF A4 | z8 | z2 G2 A4 | B4 c4 | %83
w: |us|prae- ter *|* * te * * *|* do- * *|* * mi- * ~ne,||prae- ter|te do-|
 c4 B4- | B8 |[M:4/4] z8 | z8 | z8 | z8 | z8 | z4 E4 | A2 B2 c4 | B4 z2 A2 | B2 c2 d2 A2 | %94
w: mi- ~ne.|||||||In-|no- va sig-|na et|im- mu- ta mi-|
 c4 B2 d2- | dcAB c2 B2 | EFGE F4 | E4 z4 | z4 d4 | c2 A2 c2 B2 | A2 c2 B2 A2 | e2 e2 A4 | %102
w: \-ra- bi- *||* * * * li-|a,|glo-|ri- fi- ca ma-|num tu- am et|bra- chi- um,|
 z2 d4 c2 | B2 A2 B4 | A3 G F2 E2 | D4 z2 A2- | A2 G2 A2 B2 | c4 B2 e2- | e2 d2 c2 A2 | e4 c4- | %110
w: et bra-|\-chi- um dex-||~trum, ex-|* ci- ta fu-|ro- rem et|* ef- fun- de|i- *|
 c2 B2 A3 B | c2 A3 G G2 | A4 z4 | z8 | z8 | z2 G2 G2 A2 | B2 c2 A2 A2 | G2 c3 B B2 | c3 B A2 G2 | %119
w: ||ram|||et af- fli-|ge in- i- mi-||* * * cum|
 z4 z2 e2- | e2 d2 c2 B2 | cd e4 d2 | e4 z4 | z2 d4 c2 | B2 A2 c4 | B4 z4 | A3 A A2 A2 | %127
w: et|* me- men- to|fi * * *|~nis,|et me-|men- to fi~-|\-nis,|con- te- re ca-|
 B2 c3 c c2 | A2 B2 c4 | d3 c BAGF | E2 A3 GFE | D2 E2 F4 | E2 E4 F2 | G3 G G2 A2 | G4 F2 E2- | %135
w: put prin- ci- pum,|in- i- quo-||\-rum di- * * *|cen- * ti-|um, non est|a- li- us de-|us prae *|
 ED D2 E4 | z2 D4 E2 | F3 F F2 G2 | DEFG A2 B2 | c2 d4 c2- | c2 BA G2 A2- | A2 G2 A4- | A4 z4 | %143
w: * * ter ~te,|non est|a- li- us de-||us prae- *||* ter te,||
 A4 A4 | A4 c4- | c4 z4 | c6 c2 | c4 A4- | A4 B3 A | GF G2 F2 E2- | ED D2 E4- | E4 c4- | %152
w: ut cog-|nos- cant,||qui- a|non ~est|* a *|* * li- us de-|* * * ~us,|* ni-|
 c2 B2 A4- | A2 G2 F4 | A6 GF | G4 A4- | A4 B3 A | B2 c2 B4 |] %158
w: * si tu||de- * *|* us|* no- *|* * ~ster.|
V:4
 A,8 | G,4 F,4 | E,8 | F,3 E, A,4- | A,2 G,F, G,4 | A,8 | G,4 F,4 | E,3 D, G,4- | G,2 F,E, F,4 | %9
w: Mi-|se- re-|re|no * *||stri,|de- us|om- * *|* * * ni-|
 E,8 | z8 | z4 C,4 | E,4 F,4 | E,8- | E,4 A,4 | G,2 C,2 F,4 | E,6 E,2 | F,4 D,4 | E,8- | E,4 D,4 | %20
w: ~um,||et|os- ten-|\-de|* no-|bis lu- cem|mi- se-|ra- ti-|o-|* num|
 C,6 D,2 | E,2 F,2 E,4 | %22
w: tu- *|a- * rum,|
"^© Michael Wendel 2005\nThis edition may be freely duplicated, distributed, performed or recorded for non-profit performance or use.\n" z2 A,4 G,F, | %23
w: tu- * *|
 G,2 B,2 A,4 | D,4 z4 | z8 | z8 | z8 | z8 | z8 | E,4 F,4 | E,2 C,2 D,2 E,2 | F,4 E,4- | %33
w: a- * *|~rum.||||||E- mit-|\-te ti- mo- rem|tu- ~um|
 E,4 z2 G,2- | G,2 F,2 E,2 D,2 | C,2 B,,2 A,,4 | B,,2 D,4 C,2 | _B,,4 A,,3 =B,, | C,D, E,4 D,2 | %39
w: * su~-|* per gen- tes,|quae non ex-|\-qui- si- *|e- * *||
 E,4 A,,4 | z8 | z8 | z8 | z2 E,4 F,2 | E,4 C,2 D,2- | D,C, C,3 B,, B,,2 | C,3 D, E,4 | A,,4 z4 | %48
w: runt ~te.||||Al- le-|va ma- *|* num tu- * *||am|
 z2 D,4 C,2 | F,4 E,3 F, | G,2 A,4 G,2 | E,2 F,2 G,2 E,2 | F,4 E,4 | z2 E,2 E,2 E,2 | %54
w: su- per|gen- tes *|* et ad-|\-ve * * *|* ~nas,|ut vi- de-|
 F,2 E,2 D,2 F,2 | E,6 E,2 | C,4 z4 | z4 z2 G,2 | A,4 G,2 F,2 | E,4 F,4 | G,4 A,4 | %61
w: ant po- ten- ti-|am tu-|\-am|et|cog- nos- cant|te, *|et cog-|
 G,2 F,2 E,F,G,E, | F,G, A,4 G,2 | A,4 z4 | z4 E,4 | D,2 B,,2 C,2 D,2- | D,2 C,2 A,,2 B,,2 | %67
w: \-nos- cant te, * * *|||sic-|ut et nos cog-|* * no- *|
 C,3 B,, G,,2 A,,2 | E,4 A,,4- | A,,4 z4 | A,4 F,2 G,2 | A,3 G, E,2 F,2 | C,2 D,3 C, A,,2 | %73
w: |vi- ~~mus,||quo- ni- am|non * * est|de * * *|
 B,,4 A,,4 | z8 | z4 z2 A,,2 | C,3 D, E,F, G,2- | G,F,D,E, F,4 | E,4 D,2 C,2 | B,,4 A,,4 | %80
w: * us||prae-|\-ter * * * *||te do- *|mi- ~ne,|
 z2 C,2 D,4 | E,4 F,4 | E,4 C,4- | C,2 B,,A,, E,4- | E,8 |[M:4/4] z8 | z8 | z8 | z8 | z8 | z8 | %91
w: prae- ter|te do-||* mi- * ne.||||||||
 z4 A,,4 | D,2 E,2 F,4 | E,4 z2 D,2 | E,2 F,2 G,2 D,2 | F,4 E,2 G,2- | G,F, E,3 D, D,2 | E,4 z4 | %98
w: In-|no- va sig-|na et|im- mu- ta mi-|ra- bi- *|* * * * li-|a,|
 A,4 G,2 D,2 | F,2 F,2 E,4 | A,4 G,2 F,2 | E,4 D,2 C,2 | D,4 A,,B,,C,D, | E,2 A,,2 E,4 | %104
w: glo- ri- fi~-|ca ma- num|tu- am et|bra- chi *|um dex * * *|* * ~trum,|
 z2 A,4 G,2 | A,2 B,2 C4 | B,4 A,2 G,2- | G,F, F,2 G,2 E,2 | F,2 G,2 A,2 A,2 | E,4 z2 A,2- | %110
w: ex- ci-|ta fu- ro-||* * * rum et|ef- fun- de i-|\-ram, et|
 A,2 G,2 F,2 D,2 | A,4 E,4 | z2 A,3 A, A,2 | B,2 A,2 G,2 A,2- | A,G,F,E, D,2 E,2 | F,2 G,2 C,4 | %116
w: * ef- fun- de|i- ram,|de- pri- me|ad- ver- sa *|* * * * ri- um|no- * ~strum,|
 z2 C,2 C,2 D,2 | E,3 F, D,2 D,2 | C,4 z2 C,2 | D,2 F,2 E,3 D, | C,2 D,2 E,4 | A,,4 z2 D,2- | %122
w: et af- fli-|ge in- i- mi-|cum, fe-|\-sti- na tem *||pus et|
 D,2 C,2 B,,2 A,,2 | C,2 B,,2 A,,4 | z2 D,2 C,2 A,,2 | E,2 E,2 A,,4- | A,,8 | z8 | z8 | z8 | z8 | %131
w: * me- men- to|fi- * ~nis,|et me- men-|\-to fi~- nis,||||||
 z2 A,,2 A,,2 B,,2 | C,3 C, C,2 D,2 | C,3 D, E,2 F,2 | F,2 E,2 D,2 C,2 | D,2 B,,2 A,,4 | z8 | %137
w: con- te- re|ca- put prin- *|ci- * pum, in-|i- quo- rum di-|\-cen- ti- um,||
 D,6 E,2 | F,3 F, F,2 G,2- | G,2 F,2 D,2 E,2 | F,4 E,4- | E,4 z4 | A,,8 | A,,4 D,4- | D,4 C,4- | %145
w: non est|a- li- us de-|* us prae *|\-ter te,||ut|cog- nos-|* cant,|
 C,4 z4 | C,6 C,2 | C,4 F,4- | F,4 E,4- | E,4 D,2 C,2 | B,,4 A,,4- | A,,4 A,4- | A,2 G,2 F,4- | %153
w: |qui- a|non est|* a-|* li- us|de- ~us,|* ni-|* si tu|
"^*  orig. f" F,2 E,2 D,4- | D,4 E,4 |"^*" G,4 E,4- | E,8- | E,8 |] %158
w: * de- us|* no-|* ~~ster.|||

